X: 1931
T: Varsın Gönül Aşkınla...
C: Lem´i Atlı
O: Turkey
F: http://compmusic.upf.edu/node/140
N: nisaburek--sarki--turkaksagi--varsin_gonul--lemi_atli
N: makam= nisaburek
N: form= sarki
N: usul= turkaksagi = 5/8
M: 5/8
L: 1/16
K: C ^9/8f ^3/4c ^3/4g 
Q: 1/4=144
%%MIDI tuningsystem comma53
A4 e6 | f3/2e/ dfe6  | d3/2c/Bd c6 | B3/2A/ GBA6  | \
w:  ARANAĞME  |   |   |   | 
=g2f2 e2d2 c2 | 
w:   | 
e2 fe{f}e4z2  | f3/2e/dc d6 | e3/2d/ cBc6  | \
w:   |   |   | 
d3/2c/BA B6 | AG AFE6  | 
w:   |   | 
A4 c2B2 A2 | G2 {c}BAA4z2  | A4 e6 | f3/2e/ dfe6  | \
w:   |   |  ARANAĞME  |   | 
d3/2c/Bd c6 | 
w:   | 
B3/2A/ GBA6  | =g2f2 e2d2 c2 | e2 fe{f}e4z2  | \
w:   |   |   | 
f3/2e/dc d6 | e3/2d/ cBc6  | 
w:   |   | 
d3/2c/BA B6 | AG AFE6  | A4 c2B2 A2 | G2 {c}BAA4z2  | \
w:   |   |   |   | 
A4 e4 z2 | 
w:  Var sın   | 
f2 {=g}fee6  | c3B B4 BA | A8z2  | =g2f2 e2d2 c2 | \
w:  gö *  nül_ *  aş  |  kın *  la  ha  |  râb   |  ol *  sun_ *  e  | 
e2 {=g}fee4z2  | 
w:  fen *  *  *  dim    | 
.=g2.f2 .e2.d2 .c2 | B2 A2G2 F2E2  | \
w:  SAZ  |   | 
A4 e4 z2 | f2 {=g}fee6  | c3B B4 BA | 
w:  Var sın   |  gö *  nül_ *  aş  |  kın *  la  ha  | 
A8z2  | =g2f2 e2d2 c2 | e2 {=g}fee4z2  | \
w:  râb   |  ol *  sun_ *  e  |  fen *  *  *  dim    | 
=g2f2 e2d2 c2 | e2 fe{f}e4z2  | 
w:  SAZ  |   | 
=g2f2 {f}e2d2 cB | d2 cBB6  | A4 d2c2 B2 | \
w:  Câ *  *  nâ  |  nı ma  *  nezr_  |  ey le mi  | 
A4e4z2  | c2B2 A2G2 FE | 
w:  şim   |  câ *  nı mı   | 
c2 BAA4z2  | =g2f2 e2d2 c2 | e2 {=g}fee4z2  | \
w:  ken *  *  dim    |  SAZ  |   | 
=g2f2 {f}e2d2 cB | 
w:  Câ *  *  nâ  | 
d2 cBB6  | A4 d2c2 B2 | A4e4z2  | c2B2 A2G2 FE | \
w:  nı ma  *  nezr_  |  ey le mi  |  şim   |  câ *  nı mı   | 
c2 BAA4z2  | 
w:  ken *  *  dim    | 
e4 ^2/4f3e d2 | e2 ^2/4fe{f}e4z2  | e4 ^1/4f4 e2 | \
w:  SAZ  |   |  Der mân   | 
ed dcc4z2  | {e}d2c_7/8B BAA4 | 
w:  a *  ra *  dım   |  *  der *  *  di *  me   | 
A2 _7/8B2c2 d2e2  | ^1/4f2e2 b2a2 g2 | \
w:  hic  |  râ *  nı  *  be  | 
g^1/4f fee4z2  | b2a2 =g2^1/4f2 ed | 
w:  ğen *  *  *  dim    |  SAZ  | 
e2 {=g}^1/4fee4z2  | e4 =c'4 ba | g^1/4f fee4z2  | \
w:   |  Der man   |  a *  ra *  dım   | 
d2c2 BAA4 | A2 B2c2 d2e2  | 
w:  der *  di *  me   |  hic  | 
e2{=g}fe e2d2 c2 | e2 fe{f}e4z2  | =g2f2 e2d2 c2 | \
w:  râ *  *  *  nı  *  be  |  ğen *  *  *  dim    |  SAZ  | 
e2 {=g}fee4z2  | 
w:   | 
=g2f2 {f}e2d2 cB | d2 cBB6  | A4 d2c2 B2 | \
w:  Câ *  *  nâ  |  nı ma  *  nezr_  |  ey le mi  | 
A4e4z2  | c2B2 A2G2 FE | 
w:  şim   |  câ *  nı mı   | 
c2 BAA4z2  | |


